X:89
T:The Man from Rush
R:slow air
C:Paul S. Cranford
O:Cape Breton Island
S:http://www.cranfordpub.com
D:currently unrecorded
B:currently unpublished in book form
Z:psc. Note-  pauses, rubato etc. not indicated.
N:Chris Langan came from Rush. http://www.cranfordpub.com/langan
H:                                                        copyrights Cranford Publications, SOCAN
L:1/8
Q:222
M:3/4
K:G
d|dB G3D|(G/A/B/c/) d3 g/e/|=f>d c A3|(F/G/A/B/) GF D>d|
dB G3 D|(G/A/B/c/) d3 g|=fd c3 A|(F/G/A/B/) G3:|
||d|g3 a bd|c4 de|=f3 (g ab)|(gf) d2 bb/a/|
g3 f dB|c4 (3(fga)|(gf) d4-|d4 z d|
dB G3 D|(G/A/B/c/) d3 g|=fd c3 A|(F/G/A/B/) G3|]
